X:197
T:Dawg's Waltz
C:David Grisman
N:From the CD "Garcia and Grisman" Transcribed by Mike Stangeland
L:1/8
Q:1/4=96
M:3/4
K:D
z3D FA | "D"(3ddd d{=f}^f dA | "D7"(3=ccc (3ccc cd | "G"(3BBB Bd (3B/d/B/G | "C7"(3^AAA (3AAA =AG | 
"D"(3FFF (3GGG (3AAA | (3"D7"ddd (3eee (3f[af][af] | (3"Gm"[^ag][ag][ag] (3[ag][ag][ag] (3[ag][ag][ag] | 
"C7"[e4G4] (3FAB | "D"(3ddd d{=f}^f dA | "D7"(3=ccc (3ccc cd | "G"(3BBB Bd (3B/d/B/G | 
"C7"(3^AAA (3AAA =AG | "D"{=F}(3^FFF (3DDD (3DDB, | "A7"(3A,A,A, A,=F/(3E (3D=CA, | 
"D"(3[FD][FD][FD] (3[FD][FD][fFD] (3[FD][FD][FC] | "D7"(3[F=C][FC][FC] (3[FC][FC][FC] (3DEG | 
(3"G"BBB (3ddd (3e=fe | (3"F#"ccc (3ccc(3de | {e}"D"f2 (3aaa(3bd' | {d'}"D7"e'2 d'2 (3^abd' | 
(3"G"b2g2 (3e'd'b | (3"C7"aaa z2 (3zBc | "D"d3(3B/=c/B/ AG | (3"A7"AAA A2 (3DFA | 
"D"(3ddd d{=f}^f dA | "D7"(3=ccc (3ccc cd | "G"(3BBB Bd (3c=cB | "C7"(3^AAA (3AAA (3=cBA | 
"D"{^G}(3AAA (3FFF (3DDD | "A7"(3A,A,A, A,=F/(3E (3D=CA, | "D"(3DDD (3DDD D2 | 
[g6c6E6A,6] | 
 

